src/symbolic/apps/preferences-desktop-display-symbolic.svg

<svg xmlns="http://www.w3.org/2000/svg" width="16" height="16"><path d="M0 3v7h12zm2 3l3 2H2z" fill="#444"/><path d="M2 0C0 0 0 2 0 2h14v9H0s0 2 2 2h12s2 0 2-2V2s0-2-2-2zm2 14s-1 0-1 1v1h10v-1c0-1-1-1-1-1z" fill="#444"/></svg>

<svg xmlns="http://www.w3.org/2000/svg" width="16" height="16" version="1.1">
 <path style="fill:#444444" d="M 0,3 V 10 H 12 Z M 2,6 5,8 H 2 Z"/>
 <path style="fill:#444444" d="M 2,0 C 0,0 0,2 0,2 H 14 V 11 H 0 C 0,11 0,13 2,13 H 14 C 14,13 16,13 16,11 V 2 C 16,2 16,0 14,0 Z M 4,14 C 4,14 3,14 3,15 V 16 H 13 V 15 C 13,14 12,14 12,14 Z"/>
</svg>
